X:258
T:Rattlesnake
C:David Grisman
N:TablEdited by Larry Tanner
L:1/8
Q:1/4=190
M:4/4
K:C
z7/1z/4G,/4D/4_B/4 |: gf "Part A"dc "Gm/F#"_BG FD | "Gm/F"FG FD "Gm/E"C_B, G,B, | 
"Gm"G,_B, CD FG FD | 
K:Bb
"D7"G/A3/2 cA GF Dz/4G,/4D/4B/4 | 
M:3/4
"Gm"gf dc BG | "F"FD FG FD | "Eb"CB, G,B, G,B, | "F"CD FG FD | 
M:4/4
|1 "Gm"CG, (3B,"D"CB, "Gm"G,3z/4G,/4D/4B/4 :|2 "Gm"CG, (3B,"D"CB, "Gm"G,4 | "Cm"C2 "Part B"ED zE C2 | 
(3EDC D2 (3EDC D3/2C/ | "Eb""Eb"EA GE AG EA | "D""D"DA _GD AG DA | "Cm"(3EDC D2 (3EDC D2 | 
(3EDC DC DC2z/C/ | "Eb""Eb"EA GE AG EA | "D""D"DA _GD AG DA | D2 [d2_G2] [=e2=G2] [_gA]z/4G,/4D/4B/4 | 
gf "Part A"dc "Gm/F#"BG FD | "Gm/F"FG FD "Gm/E"CB, G,B, | "Gm"G,B, CD FG FD | 
"D7"G/A3/2 cA GF Dz/4G,/4D/4B/4 | 
M:3/4
"Gm"gf dc BG | "F"FD FG FD | "Eb"CB, G,B, G,B, | "F"CD FG FD | 
M:4/4
"Gm"CG, (3B,"D"CB, "Gm"G,4 | 
 

